images/wish-list-icon.svg

<svg width="21" height="20" viewBox="0 0 21 20" fill="none" xmlns="http://www.w3.org/2000/svg">
<path d="M15.4155 0C13.6705 0 11.9957 0.882834 10.9026 2.27793C9.80948 0.882834 8.13471 0 6.38974 0C3.30094 0 0.874023 2.6376 0.874023 5.99455C0.874023 10.1144 4.28374 13.4714 9.44845 18.5722L10.9026 20L12.3567 18.5613C17.5215 13.4714 20.9312 10.1144 20.9312 5.99455C20.9312 2.6376 18.5043 0 15.4155 0ZM11.0029 16.9482L10.9026 17.0572L10.8023 16.9482C6.02871 12.2507 2.87974 9.14441 2.87974 5.99455C2.87974 3.81471 4.38402 2.17984 6.38974 2.17984C7.93414 2.17984 9.43842 3.25886 9.96994 4.75204H11.8453C12.3668 3.25886 13.8711 2.17984 15.4155 2.17984C17.4212 2.17984 18.9255 3.81471 18.9255 5.99455C18.9255 9.14441 15.7765 12.2507 11.0029 16.9482Z" fill="black"/>
</svg>

<svg width="21" height="20" fill="none" xmlns="http://www.w3.org/2000/svg"><path d="M15.415 0c-1.744 0-3.42.883-4.512 2.278C9.809.883 8.135 0 6.39 0 3.3 0 .874 2.638.874 5.995c0 4.12 3.41 7.476 8.574 12.577L10.903 20l1.454-1.439c5.165-5.09 8.574-8.447 8.574-12.566C20.931 2.638 18.504 0 15.415 0Zm-4.412 16.948-.1.11-.1-.11C6.028 12.251 2.88 9.144 2.88 5.995c0-2.18 1.504-3.815 3.51-3.815 1.544 0 3.048 1.079 3.58 2.572h1.875c.522-1.493 2.026-2.572 3.57-2.572 2.006 0 3.51 1.635 3.51 3.815 0 3.15-3.149 6.256-7.922 10.953Z" fill="#000"/></svg>
